**kern	**silbe
*ICvox	*
r;	.
*C:	*
*M4/4	*
*clefG2	*
r;	.
=1	=1
1r	.
=2	=2
1r	.
=3	=3
1r	.
=4	=4
1r	.
=5	=5
4r	.
8.g	un-
16a	-for-
16a	-get-
16b	-a-
[16b	-ble
16b_	_
4b]	_
=6	=6
4r	.
8r	.
2r	.
8b	that's
=7	=7
16b	what
16a	you
[2b	are
8b]	_
4r	.
=8	=8
1r	.
=9	=9
4r	.
8.cc	un-
16dd	-for-
16dd	-get-
16ee	-a-
[16ee	-ble
16ee_	_
4ee]	_
=10	=10
2r	.
6gg	though
6ee	near
6dd	or
=11	=11
1ee	far
=12	=12
1r	.
=13	=13
8r	.
8ff	like
8r	.
8gg	a
4gg	song
12r	.
12ee	of
12ff	love
=14	=14
4r	.
8r	.
8gg	that
8.aa	clings
16gg	to
4ff	_
=15	=15
4r	.
4ee	oh
8ee	how
8cc	the
12ee	thought
12cc	of
[12ee	you
=16	=16
8ee]	_
8ee	does
4r	.
8ee	things
16dd	to
[16cc	me
4cc]	_
=17	=17
4r	.
8r	.
16a	nev-
16a	-er
4.r	.
8dd	be-
=18	=18
4a	-fore
4r	.
4.r	.
8a	has
=19	=19
12b	some-
12b	-one
12r	.
4r	.
4r	.
4ff	been
=20	=20
4b	more
4r	.
2r	.
=21	=21
4r	.
8.g	un-
16a	-for-
16a	-get-
16b	-a-
[16b	-ble
16b_	_
4b]	_
=22	=22
4r	.
8r	.
2r	.
8b	in
=23	=23
16b	ev-
16a	-ry
[2b	way
8b]	_
4r	.
=24	=24
1r	.
=25	=25
4r	.
8.cc	and
16dd	for-
16dd	-ev-
16ee	-er
[16ee	more
16ee_	_
4ee]	_
=26	=26
2r	.
8gg	I
8ee	in-
8.ee	-tend
16dd	to
=27	=27
1ee	stay
=28	=28
1r	.
=29	=29
8r	.
8ff	that's
8r	.
8gg	why
8gg	dar-
8ff	-ling
4r	.
=30	=30
4r	.
16r	.
16gg	it's
16r	.
16aa	in-
12aa	-cred-
12gg	-i-
[12ff	-ble
4ff]	_
=31	=31
4r	.
4ee	that
6ee	some-
6cc	-one
6ee	so
=32	=32
8ee	un-
8ee	-for-
8ee	-get-
16dd	-a-
[16cc	-ble
2cc]	_
=33	=33
4r	.
8g	thinks
8a	that
8a	i
8g	am
4r	.
=34	=34
8r	.
8g	un-
4r	.
8r	.
8dd	-for-
12dd	-get-
12a	-a-
12dd	-ble-
=35	=35
1cc	-too
=36	=36
2r	.
[4bb-	please
12bb-]	_
12aa	won't
12ff	you
=37	=37
8aa	think
8ff	that
8ff	I
4.dd	am
4r	.
=38	=38
8bb-	un-
8aa	-for-
16ff	-get-
16gg	-a-
16aa	-b-
16ff	-l-
2gg;	-e
=39	=39
[1ff	too
=40	=40
1ff];	_
r;	.
r;	.
*-	*-
!!!ENC: Nathaniel Condit-Schultz